actions/16/foreign_red.svg

<svg xmlns="http://www.w3.org/2000/svg" viewBox="0 0 16 16">
  <defs id="defs3051">
    <style type="text/css" id="current-color-scheme">.ColorScheme-Text {color:#fcfcfc;}.ColorScheme-Highlight {color:#3daee9;}.ColorScheme-NegativeText {color:#da4453;}</style>
  </defs>
  <path 
        style="fill:currentColor;fill-opacity:1;stroke:none"
        d="M 5,2 C 4.448,2 4,2.448 4,3 V 5 C 4,5 2,5 2,7 2,9 2,8 2,8 H 3 C 3,8 3,8 3,7 3,6 4,6 4,6 h 8 c 0,0 1,0 1,1 0,1 0,1 0,1 h 1 C 14,8 14,9 14,7 14,5 12,5 12,5 V 3 C 12,2.448 11.552,2 11,2 Z m 0,1 h 6 V 5 H 5 Z M 4.0039062,9 c -0.5522847,0 -1,0.4477153 -1,1 0,0.552285 0.4477153,1 1,1 0.5522847,0 1,-0.447715 1,-1 0,-0.5522847 -0.4477153,-1 -1,-1 z M 2.6835938,12 C 2.2521413,12.379197 2.0045546,12.925595 2.0039062,13.5 V 14 h 4 V 13.5 C 6.0032578,12.925595 5.7556712,12.379197 5.3242188,12 Z"
        class="ColorScheme-Text"
        />
  <path
      style="fill:currentColor;fill-opacity:1;stroke:none" 
     class="ColorScheme-NegativeText"
    d="m 11,8 c -1.662,0 -3,1.338 -3,3 0,1.662 1.338,3 3,3 1.662,0 3,-1.338 3,-3 0,-1.662 -1.338,-3 -3,-3 m 0,1 c 1.108,0 2,0.892 2,2 0,1.108 -0.892,2 -2,2 C 9.892,13 9,12.108 9,11 9,9.892 9.892,9 11,9 m -1,1 0,2 2,0 0,-1 -1,0 0,-1 z" />
</svg>

<svg xmlns="http://www.w3.org/2000/svg" viewBox="0 0 16 16">
  <defs id="defs3051">
    <style type="text/css" id="current-color-scheme">
      .ColorScheme-Text {
        color:#eff0f1;
      }
      .ColorScheme-Highlight {
        color:#3daee9;
      }
      .ColorScheme-NegativeText {
        color:#da4453;
      }
      </style>
  </defs>
  <path 
        style="fill:currentColor;fill-opacity:1;stroke:none"
        d="M 5 2 C 4.448 2 4 2.448 4 3 L 4 5 L 2 5 L 2 8 L 3 8 L 3 6 L 13 6 L 13 8 L 14 8 L 14 5 L 12 5 L 12 3 C 12 2.448 11.552 2 11 2 L 5 2 z M 5 3 L 11 3 L 11 5 L 5 5 L 5 3 z M 4.0039062 9 A 1 1 0 0 0 3.0039062 10 A 1 1 0 0 0 4.0039062 11 A 1 1 0 0 0 5.0039062 10 A 1 1 0 0 0 4.0039062 9 z M 2.6835938 12 A 2 2 0 0 0 2.0039062 13.5 L 2.0039062 14 L 6.0039062 14 L 6.0039062 13.5 A 2 2 0 0 0 5.3242188 12 L 2.6835938 12 z "
        class="ColorScheme-Text"
        />
  <path
      style="fill:currentColor;fill-opacity:1;stroke:none" 
     class="ColorScheme-NegativeText"
    d="m 11,8 c -1.662,0 -3,1.338 -3,3 0,1.662 1.338,3 3,3 1.662,0 3,-1.338 3,-3 0,-1.662 -1.338,-3 -3,-3 m 0,1 c 1.108,0 2,0.892 2,2 0,1.108 -0.892,2 -2,2 C 9.892,13 9,12.108 9,11 9,9.892 9.892,9 11,9 m -1,1 0,2 2,0 0,-1 -1,0 0,-1 z" />
</svg>
